hackathon/svg-icons/src/components/icons/source/vr-program.svg

<svg fill="none" height="256" viewBox="0 0 256 256" width="256" xmlns="http://www.w3.org/2000/svg"><g fill="#000"><path d="m81.9383 124.398c2.1946.003 4.3856-.131 6.5638-.4 2.0124-.252 3.5195-1.972 3.5035-4v-19.9991c0-1.0607-.4214-2.0785-1.1714-2.8285-.75-.7499-1.7678-1.1714-2.8284-1.1714-14.0671.0072-27.4328-6.1391-36.5821-16.8225l-8.38-9.7765c-1.0892-1.2695-2.8534-1.7267-4.4212-1.1481-1.5696.5803-2.6124 2.0749-2.6142 3.748v23.9989c-.0036.7018.1785 1.391.5285 1.9999 4.5605 8.0193 11.1638 14.6873 19.1401 19.3223 7.9745 4.638 17.0372 7.08 26.2614 7.077zm-37.9306-41.5984 1.3446 1.5678c9.7586 11.4048 23.6812 18.4246 38.6538 19.4926v12.47c-7.98.377-15.912-1.416-22.9562-5.185-7.0425-3.772-12.9315-9.38-17.042-16.2299z"/><path d="m164.001 139.999c.268 0 .537-.026.8-.08l14.883-2.977v.002c17.14-3.437 32.524-12.799 43.454-26.443.562-.713.866-1.593.86-2.5v-39.9986c0-1.6178-.975-3.0748-2.469-3.6944-1.495-.6196-3.214-.2768-4.359.866-12.517 12.5334-28.356 21.2278-45.649 25.0594l-8.4 1.8606c-1.827.4107-3.123 2.0339-3.119 3.907v39.998c0 1.061.421 2.079 1.171 2.829s1.768 1.171 2.828 1.171zm4-40.7978 5.255-1.1678c15.715-3.4838 30.37-10.6729 42.742-20.9668v29.5114c-9.699 11.603-23.07 19.547-37.898 22.522l-10.099 2.02z"/><path d="m42.4796 43.7002c.4839.2018 1.0035.3053 1.5285.3035 1.0624 0 2.0803-.4214 2.832-1.1713l1.8517-1.8607c8.2872-8.3301 19.5635-12.9996 31.3147-12.9671 1.0606 0 2.0785-.4214 2.8284-1.1714.75-.75 1.1714-1.7678 1.1714-2.8284v-19.99912c0-1.06066-.4214-2.07849-1.1714-2.82845-.7499-.74995-1.7678-1.17137062-2.8284-1.17137062-13.8421.03035562-27.3057 4.51764062-38.3983 12.79944062-1.007.7553-1.5999 1.941-1.5999 3.1998v23.9989c0 1.6178.9767 3.0766 2.4713 3.6962zm5.5284-25.6505c8.2835-5.7392 17.9493-9.1566 27.9987-9.89942v11.99942c-10.1906.7518-19.9328 4.4998-27.9987 10.7744z"/><path d="m195.999 32.0043c8.954-.0107 17.446 3.9676 23.167 10.8548l9.761 11.7064v.0018c1.078 1.2928 2.851 1.7731 4.433 1.1982 1.584-.5732 2.64-2.0785 2.638-3.7624v-27.9987c0-.9071-.309-1.7874-.877-2.4963l-3.26-4.0802h.001c-4.287-5.3871-9.981-9.48341-16.451-11.83851-6.469-2.35344-13.463-2.87488-20.211-1.50351-1.863.38033-3.2 2.01778-3.2 3.91945v19.99907c0 1.0607.421 2.0785 1.171 2.8284.75.75 1.768 1.1715 2.828 1.1715zm4-20.5435c9.83-.8536 19.437 3.2623 25.599 10.9672l2.4 2.9802v15.5477l-2.684-3.1999c-6.348-7.6463-15.433-12.5064-25.315-13.5441z"/><path d="m255.997 187.997h-58.846c-7.56-10.519-21.022-19.106-38.398-23.922l-6.8-40.73h-.039c-.002-.108-.011-.215-.025-.322l-3.696-14.799 11.564-30.8308v.0018c.551-1.4714.193-3.1285-.92-4.2373l-10.835-10.81v-12.9407c2.571-3.1123 3.984-7.0209 4-11.0582v-6.0514c0-5.7318-2.522-11.1725-6.895-14.8779-4.373-3.7034-10.155-5.2944-15.808-4.3498l-17.954 2.9927c-.08 0-.148.0607-.229.0768v-.0018c-.276.0625-.544.1536-.8.2714-.119.0518-.235.1107-.348.1768-.068.0393-.144.0643-.212.1071-.181.134-.35.2822-.507.4447-.065.0517-.127.1053-.184.1642-.259.2804-.474.5965-.641.9393-.045.0875-.068.1839-.104.2768-.116.2785-.198.5696-.245.8678 0 .0642-.044.1232-.051.1928-.008.0679 0 .1072 0 .1643 0 .0554-.02.1696-.02.2625v11.9994c-.002 1.6357.993 3.107 2.512 3.7159l6.029 2.3999 5.552 13.8833h-6.093c-.62 0-1.232.1428-1.787.4196l-22.6759 11.3407-13.0636-3.2641-7.1444-10.7154h.0018c-.9392-1.4071-2.6606-2.0713-4.2997-1.6606l-15.9993 3.9998c-1.7803.4464-3.0284 2.0463-3.0284 3.8802v7.9996c0 1.0607.4214 2.0785 1.1713 2.8285.75.7499 1.7678 1.1713 2.8285 1.1713h3.9998c0 1.3375.6678 2.5856 1.7802 3.3284l11.9995 7.9997c.1589.0875.325.166.4964.2321.0875.0446.1482.1196.2357.1553l19.9991 7.9997c.9553.3803 2.0195.3803 2.9748 0l7.7322-3.0963 5.139 1.716-1.94 3.8766c-.516 1.0374-.559 2.2464-.114 3.3177.445 1.0696 1.33 1.8945 2.43 2.2624l1.265.4232v27.782c0 1.638.996 3.109 2.515 3.716l1.484.593v19.69c0 .24.022.481.065.716l2.2 12.096c-24.9388 2.839-45.2537 13.232-55.3442 27.199h-58.91845234v8h54.44775234c-1.5838 3.799-2.4141 7.871-2.4481 11.987.0304 2.705.4143 5.394 1.1446 7.999h-53.1404125v8h56.4317125c10.4671 18.612 38.55 31.998 71.5621 31.998 33.013 0 61.099-13.386 71.563-31.998h56.431v-8h-53.14c.73-2.605 1.114-5.294 1.145-7.999-.02-4.118-.834-8.191-2.4-12h54.397zm-135.994-57.044c2.625.627 5.303 1.01 7.999 1.144v16.207l3.368 43.801-3.748-2.5-7.619-41.969zm4.928 66.47 4.148 2.764-9.035 6.8-.002.002c-.279.216-.657.251-.972.091-.246-.122-.426-.349-.489-.616-.062-.268-.002-.55.166-.768zm-5.176-6.432-7.413 9.885c-1.737 2.311-2.248 5.32-1.369 8.075.878 2.753 3.037 4.912 5.791 5.791 2.755.878 5.763.368 8.074-1.37l13.564-10.176c.1-.088.196-.179.287-.277.102-.087.2-.18.293-.278.159-.186.3-.384.423-.593.049-.084.113-.161.161-.249.157-.308.273-.637.348-.974v-.125c.05-.263.075-.531.075-.8-.001-.036-.001-.072 0-.108v-.092l-1.923-24.919 9.648 36.647-4.487 7.723h-.002c-1.959 2.239-2.655 5.317-1.848 8.181.807 2.866 3.008 5.129 5.848 6.014-6.279 1.623-12.737 2.437-19.223 2.425-25.999 0-47.9977-12.715-47.9977-27.776 0-12.971 16.1387-24.363 37.9107-27.118zm30.579 34.643c-.198.132-.443.173-.672.113-.285-.077-.509-.3-.585-.584-.077-.286.005-.591.212-.8.243-.239.454-.507.629-.8l4.387-7.568h4.061c-1.697 3.918-4.486 7.264-8.032 9.639zm16.295-8.871 1.168-3.503c.02-.068.023-.139.045-.207.019-.068.028-.148.044-.229h-.001c.116-.511.128-1.037.035-1.552v-.06l-4.319-21.655c7.923 5.1 12.399 11.6 12.399 18.439 0 8.364-6.799 15.999-17.279 21.134 3.61-3.41 6.326-7.658 7.908-12.367zm-7.508-8.767h-4.036l-19.083-72.518v-3.7c3.029-.396 6.007-1.107 8.887-2.121l7.192 43.142zm-17.303-105.563-16.923-8.4608 1.732-5.1998 12.399 3.1034-.001.0018c1.084.2697 2.23.075 3.164-.5357.934-.6124 1.569-1.5874 1.752-2.6891l2.723-16.3316 4.68 4.6836zm-24.348-11.4929-3.828-1.2768 1.939-3.8766.002.0018c.516-1.0375.559-2.2464.114-3.3177-.444-1.0696-1.33-1.8946-2.43-2.2624l-5.2-1.7392 9.268-1.8553 2.451 7.3871zm12.632-40.4626-3.2-7.9517 3.82 1.2678v.0018c.373.1196.76.1821 1.151.1875.036 0 .077.0196.113.0196s.145-.0285.22-.0321c.246-.0161.489-.0518.728-.1071.12-.0286.236-.0608.352-.1.266-.0929.521-.2125.761-.3607.055-.0357.123-.0482.183-.0875l.04-.0357.052-.0286c.139-.1036.251-.2321.376-.3446.124-.1125.204-.1715.293-.2715h-.002c.124-.1482.234-.3071.332-.4713.068-.1072.149-.2.208-.3125h.001c.09-.1911.166-.3893.227-.5929.032-.1.084-.1928.107-.2964l.002.0018c.086-.3143.13-.6357.136-.9607h7.86c-.305 1.7607-1.095 3.3999-2.28 4.7353l-5.741 2.8642zm1.9 7.9996 8-3.9998v6.6443l-6.92 2.3034-1.08-1.0785zm-1.388-37.5178c3.282-.5464 6.641.3553 9.209 2.4731s4.091 5.2446 4.179 8.571h-8v-3.9998c.002-1.6356-.993-3.107-2.512-3.7159l-6.727-2.6838zm-14.611 4.9515 11.999 4.7998v3.3838l-11.999-4.7998zm-55.9978 34.0913h-3.9999v-.8768l10.2355-2.5606 5.3638 8.0248-1.7231 5.1764-5.8763-3.9034v-1.8606c0-1.0607-.4214-2.0785-1.1714-2.8285-.7499-.7499-1.768-1.1713-2.8286-1.1713zm39.1982 12.0799c-1.8625.3803-3.1999 2.0177-3.1999 3.9194v2.0928l-3.9998 1.5999-15.0119-5.9997 1.6374-4.9123 12.3994 3.1034h-.0017c.9267.2322 1.9052.1268 2.7606-.3l23.1595-11.5834h7.055v3.9998c0 1.0607.422 2.0785 1.172 2.8284l3.999 3.9999c.34.3357.736.6071 1.174.7999.11.05.223.0929.339.1322.359.1267.736.1999 1.116.2196.068 0 .132.0393.2.0393h.08c.407-.0018.813-.0679 1.2-.1964l5.7-1.8964-2.196 13.1761-9.667-2.4195-3.304-9.9155c-.628-1.941-2.614-3.098-4.612-2.6873zm19.2346 27.6183 22.112 11.0547 2.744 10.964c-8.5 3.339-17.952 3.311-26.431-.08l-.86-.347v-22.3987zm9.564 148.2947c-37.4945 0-67.9968-17.944-67.9968-39.998 0-19.087 24.1223-35.818 55.6958-39.295l.8 4.304c-25.967 3.393-44.4982 17.792-44.4982 34.991 0 20.064 24.5954 35.775 55.9972 35.775 31.402 0 55.998-15.711 55.998-35.775 0-11.448-8.12-21.895-22.276-28.659l-.123.261-1.348-6.752c21.883 7.012 35.746 20.451 35.746 35.15 0 22.055-30.502 39.998-67.997 39.998z"/></g></svg>

<svg xmlns="http://www.w3.org/2000/svg" width="256" height="256" fill="none" viewBox="0 0 256 256"><path fill="#000" d="M81.9383 124.398C84.1329 124.401 86.3239 124.267 88.5021 123.998C90.5145 123.746 92.0216 122.026 92.0056 119.998V99.9989C92.0056 98.9382 91.5842 97.9204 90.8342 97.1704C90.0842 96.4205 89.0664 95.999 88.0058 95.999C73.9387 96.0062 60.573 89.8599 51.4237 79.1765L43.0437 69.4C41.9545 68.1305 40.1903 67.6733 38.6225 68.2519C37.0529 68.8322 36.0101 70.3268 36.0083 71.9999V95.9988C36.0047 96.7006 36.1868 97.3898 36.5368 97.9987C41.0973 106.018 47.7006 112.686 55.6769 117.321C63.6514 121.959 72.7141 124.401 81.9383 124.398ZM44.0077 82.7996L45.3523 84.3674C55.1109 95.7722 69.0335 102.792 84.0061 103.86V116.33C76.0261 116.707 68.0941 114.914 61.0499 111.145C54.0074 107.373 48.1184 101.765 44.0079 94.9151L44.0077 82.7996Z"/><path fill="#000" d="M164.001 139.999C164.269 139.999 164.538 139.973 164.801 139.919L179.684 136.942V136.944C196.824 133.507 212.208 124.145 223.138 110.501C223.7 109.788 224.004 108.908 223.998 108.001V68.0024C223.998 66.3846 223.023 64.9276 221.529 64.308C220.034 63.6884 218.315 64.0312 217.17 65.174C204.653 77.7074 188.814 86.4018 171.521 90.2334L163.121 92.094C161.294 92.5047 159.998 94.1279 160.002 96.001V135.999C160.002 137.06 160.423 138.078 161.173 138.828C161.923 139.578 162.941 139.999 164.001 139.999L164.001 139.999ZM168.001 99.2012L173.256 98.0334C188.971 94.5496 203.626 87.3605 215.998 77.0666V106.578C206.299 118.181 192.928 126.125 178.1 129.1L168.001 131.12V99.2012Z"/><path fill="#000" d="M42.4796 43.7002C42.9635 43.902 43.4831 44.0055 44.0081 44.0037C45.0705 44.0037 46.0884 43.5823 46.8401 42.8324L48.6918 40.9717C56.979 32.6416 68.2553 27.9721 80.0065 28.0046C81.0671 28.0046 82.085 27.5832 82.8349 26.8332C83.5849 26.0832 84.0063 25.0654 84.0063 24.0048V4.00568C84.0063 2.94502 83.5849 1.92719 82.8349 1.17723C82.085 0.42728 81.0671 0.00585938 80.0065 0.00585938C66.1644 0.036215 52.7008 4.5235 41.6082 12.8053C40.6012 13.5606 40.0083 14.7463 40.0083 16.0051V40.004C40.0083 41.6218 40.985 43.0806 42.4796 43.7002ZM48.008 18.0497C56.2915 12.3105 65.9573 8.8931 76.0067 8.15028V20.1497C65.8161 20.9015 56.0739 24.6495 48.008 30.9241V18.0497Z"/><path fill="#000" d="M195.999 32.0043C204.953 31.9936 213.445 35.9719 219.166 42.8591L228.927 54.5655V54.5673C230.005 55.8601 231.778 56.3404 233.36 55.7655C234.944 55.1923 236 53.687 235.998 52.0031V24.0044C235.998 23.0973 235.689 22.217 235.121 21.5081L231.861 17.4279H231.862C227.575 12.0408 221.881 7.94449 215.411 5.58939C208.942 3.23595 201.948 2.71451 195.2 4.08588C193.337 4.46621 192 6.10366 192 8.00533V28.0044C192 29.0651 192.421 30.0829 193.171 30.8328C193.921 31.5828 194.939 32.0043 195.999 32.0043ZM199.999 11.4608C209.829 10.6072 219.436 14.7231 225.598 22.428L227.998 25.4082V40.9559L225.314 37.756C218.966 30.1097 209.881 25.2496 199.999 24.2119L199.999 11.4608Z"/><path fill="#000" d="M255.997 187.997H197.151C189.591 177.478 176.129 168.891 158.753 164.075L151.953 123.345H151.914C151.912 123.237 151.903 123.13 151.889 123.023L148.193 108.224L159.757 77.3932V77.395C160.308 75.9236 159.95 74.2665 158.837 73.1577L148.002 62.3477V49.407C150.573 46.2947 151.986 42.3861 152.002 38.3488V32.2974C152.002 26.5656 149.48 21.1249 145.107 17.4195C140.734 13.7161 134.952 12.1251 129.299 13.0697L111.345 16.0624C111.265 16.0624 111.197 16.1231 111.116 16.1392V16.1374C110.84 16.1999 110.572 16.291 110.316 16.4088C110.197 16.4606 110.081 16.5195 109.968 16.5856C109.9 16.6249 109.824 16.6499 109.756 16.6927C109.575 16.8267 109.406 16.9749 109.249 17.1374C109.184 17.1891 109.122 17.2427 109.065 17.3016C108.806 17.582 108.591 17.8981 108.424 18.2409C108.379 18.3284 108.356 18.4248 108.32 18.5177C108.204 18.7962 108.122 19.0873 108.075 19.3855C108.075 19.4497 108.031 19.5087 108.024 19.5783C108.016 19.6462 108.024 19.6855 108.024 19.7426C108.024 19.798 108.004 19.9122 108.004 20.0051V32.0045C108.002 33.6402 108.997 35.1115 110.516 35.7204L116.545 38.1203L122.097 52.0036H116.004C115.384 52.0036 114.772 52.1464 114.217 52.4232L91.5411 63.7639L78.4775 60.4998L71.3331 49.7844H71.3349C70.3957 48.3773 68.6743 47.7131 67.0352 48.1238L51.0359 52.1236C49.2556 52.57 48.0075 54.1699 48.0075 56.0038V64.0034C48.0075 65.0641 48.4289 66.0819 49.1788 66.8319C49.9288 67.5818 50.9466 68.0032 52.0073 68.0032H56.0071C56.0071 69.3407 56.6749 70.5888 57.7873 71.3316L69.7868 79.3313C69.9457 79.4188 70.1118 79.4973 70.2832 79.5634C70.3707 79.608 70.4314 79.683 70.5189 79.7187L90.518 87.7184C91.4733 88.0987 92.5375 88.0987 93.4928 87.7184L101.225 84.6221L106.364 86.3381L104.424 90.2147C103.908 91.2521 103.865 92.4611 104.31 93.5324C104.755 94.602 105.64 95.4269 106.74 95.7948L108.005 96.218V124C108.005 125.638 109.001 127.109 110.52 127.716L112.004 128.309V147.999C112.004 148.239 112.026 148.48 112.069 148.715L114.269 160.811C89.3302 163.65 69.0153 174.043 58.9248 188.01H0.00634766V196.01H54.4541C52.8703 199.809 52.04 203.881 52.006 207.997C52.0364 210.702 52.4203 213.391 53.1506 215.996H0.0101875V223.996H56.4419C66.909 242.608 94.9919 255.994 128.004 255.994C161.017 255.994 189.103 242.608 199.567 223.996H255.998V215.996H202.858C203.588 213.391 203.972 210.702 204.003 207.997C203.983 203.879 203.169 199.806 201.603 195.997H256L255.997 187.997ZM120.003 130.953C122.628 131.58 125.306 131.963 128.002 132.097V148.304L131.37 192.105L127.622 189.605L120.003 147.636V130.953ZM124.931 197.423L129.079 200.187L120.044 206.987L120.042 206.989C119.763 207.205 119.385 207.24 119.07 207.08C118.824 206.958 118.644 206.731 118.581 206.464C118.519 206.196 118.579 205.914 118.747 205.696L124.931 197.423ZM119.755 190.991L112.342 200.876C110.605 203.187 110.094 206.196 110.973 208.951C111.851 211.704 114.01 213.863 116.764 214.742C119.519 215.62 122.527 215.11 124.838 213.372L138.402 203.196C138.502 203.108 138.598 203.017 138.689 202.919C138.791 202.832 138.889 202.739 138.982 202.641C139.141 202.455 139.282 202.257 139.405 202.048C139.454 201.964 139.518 201.887 139.566 201.799C139.723 201.491 139.839 201.162 139.914 200.825V200.7C139.964 200.437 139.989 200.169 139.989 199.9C139.988 199.864 139.988 199.828 139.989 199.792V199.7L138.066 174.781L147.714 211.428L143.227 219.151H143.225C141.266 221.39 140.57 224.468 141.377 227.332C142.184 230.198 144.385 232.461 147.225 233.346C140.946 234.969 134.488 235.783 128.002 235.771C102.003 235.771 80.0043 223.056 80.0043 207.995C80.0043 195.024 96.143 183.632 117.915 180.877L119.755 190.991ZM150.334 225.634C150.136 225.766 149.891 225.807 149.662 225.747C149.377 225.67 149.153 225.447 149.077 225.163C149 224.877 149.082 224.572 149.289 224.363C149.532 224.124 149.743 223.856 149.918 223.563L154.305 215.995H158.366C156.669 219.913 153.88 223.259 150.334 225.634ZM166.629 216.763L167.797 213.26C167.817 213.192 167.82 213.121 167.842 213.053C167.861 212.985 167.87 212.905 167.886 212.824H167.885C168.001 212.313 168.013 211.787 167.92 211.272V211.212L163.601 189.557C171.524 194.657 176 201.157 176 207.996C176 216.36 169.201 223.995 158.721 229.13C162.331 225.72 165.047 221.472 166.629 216.763ZM159.121 207.996H155.085L136.002 135.478V131.778C139.031 131.382 142.009 130.671 144.889 129.657L152.081 172.799L159.121 207.996ZM141.818 102.433L124.895 93.9722L126.627 88.7724L139.026 91.8758L139.025 91.8776C140.109 92.1473 141.255 91.9526 142.189 91.3419C143.123 90.7295 143.758 89.7545 143.941 88.6528L146.664 72.3212L151.344 77.0048L141.818 102.433ZM117.47 90.9401L113.642 89.6633L115.581 85.7867L115.583 85.7885C116.099 84.751 116.142 83.5421 115.697 82.4708C115.253 81.4012 114.367 80.5762 113.267 80.2084L108.067 78.4692L117.335 76.6139L119.786 84.001L117.47 90.9401ZM130.102 50.4775L126.902 42.5258L130.722 43.7936V43.7954C131.095 43.915 131.482 43.9775 131.873 43.9829C131.909 43.9829 131.95 44.0025 131.986 44.0025C132.022 44.0025 132.131 43.974 132.206 43.9704C132.452 43.9543 132.695 43.9186 132.934 43.8633C133.054 43.8347 133.17 43.8025 133.286 43.7633C133.552 43.6704 133.807 43.5508 134.047 43.4026C134.102 43.3669 134.17 43.3544 134.23 43.3151L134.27 43.2794L134.322 43.2508C134.461 43.1472 134.573 43.0187 134.698 42.9062C134.822 42.7937 134.902 42.7347 134.991 42.6347H134.989C135.113 42.4865 135.223 42.3276 135.321 42.1634C135.389 42.0562 135.47 41.9634 135.529 41.8509H135.53C135.62 41.6598 135.696 41.4616 135.757 41.258C135.789 41.158 135.841 41.0652 135.864 40.9616L135.866 40.9634C135.952 40.6491 135.996 40.3277 136.002 40.0027H143.862C143.557 41.7634 142.767 43.4026 141.582 44.738L135.841 47.6022L130.102 50.4775ZM132.002 58.4771L140.002 54.4773V61.1216L133.082 63.425L132.002 62.3465L132.002 58.4771ZM130.614 20.9593C133.896 20.4129 137.255 21.3146 139.823 23.4324C142.391 25.5502 143.914 28.677 144.002 32.0034H136.002V28.0036C136.004 26.368 135.009 24.8966 133.49 24.2877L126.763 21.6039L130.614 20.9593ZM116.003 25.9108L128.002 30.7106V34.0944L116.003 29.2946V25.9108ZM60.0052 60.0021H56.0053V59.1253L66.2408 56.5647L71.6046 64.5895L69.8815 69.7659L64.0052 65.8625V64.0019C64.0052 62.9412 63.5838 61.9234 62.8338 61.1734C62.0839 60.4235 61.0658 60.0021 60.0052 60.0021ZM99.2034 72.082C97.3409 72.4623 96.0035 74.0997 96.0035 76.0014V78.0942L92.0037 79.6941L76.9918 73.6944L78.6292 68.7821L91.0286 71.8855H91.0269C91.9536 72.1177 92.9321 72.0123 93.7875 71.5855L116.947 60.0021H124.002V64.0019C124.002 65.0626 124.424 66.0804 125.174 66.8303L129.173 70.8302C129.513 71.1659 129.909 71.4373 130.347 71.6301C130.457 71.6801 130.57 71.723 130.686 71.7623C131.045 71.889 131.422 71.9622 131.802 71.9819C131.87 71.9819 131.934 72.0212 132.002 72.0212H132.082C132.489 72.0194 132.895 71.9533 133.282 71.8248L138.982 69.9284L136.786 83.1045L127.119 80.685L123.815 70.7695C123.187 68.8285 121.201 67.6715 119.203 68.0822L99.2034 72.082ZM118.438 99.7003L140.55 110.755L143.294 121.719C134.794 125.058 125.342 125.03 116.863 121.639L116.003 121.292V98.8933L118.438 99.7003ZM128.002 247.995C90.5075 247.995 60.0052 230.051 60.0052 207.997C60.0052 188.91 84.1275 172.179 115.701 168.702L116.501 173.006C90.534 176.399 72.0028 190.798 72.0028 207.997C72.0028 228.061 96.5982 243.772 128 243.772C159.402 243.772 183.998 228.061 183.998 207.997C183.998 196.549 175.878 186.102 161.722 179.338L161.599 179.599L160.251 172.847C182.134 179.859 195.997 193.298 195.997 207.997C195.997 230.052 165.495 247.995 128 247.995L128.002 247.995Z"/></svg>
